edushare/edushare/static/bundles/images/books/books4.svg

<svg xmlns="http://www.w3.org/2000/svg" viewBox="0 0 114.24 87.36"><defs><style>.cls-4{fill:#fff;mix-blend-mode:overlay;opacity:.5}.cls-5{fill:#fff1da}.cls-6{fill:#e5d5bd}</style></defs><g style="isolation:isolate"><g id="Слой_2" data-name="Слой 2"><g id="Objects"><path d="M23.73 2.48v84.87H20L3.71 85.86V0H20l2.78 1.11a1.48 1.48 0 01.95 1.37z" fill="#0e62aa"/><path d="M2 0h18v87.36H0V2a2 2 0 012-2z" fill="#1a81e6"/><path class="cls-4" d="M17.87 0h1.44v87.36h-1.44z"/><path class="cls-5" d="M0 3.4h20.03v2.35H0z"/><path class="cls-6" d="M23.73 4.88v2.35l-3.71-1.48V3.4l3.71 1.48z"/><path class="cls-5" d="M0 8.31h20.03v2.35H0z"/><path class="cls-6" d="M23.73 9.79v2.35l-3.71-1.48V8.31l3.71 1.48z"/><path d="M41.7 17.29v70.06h-3.06l-13.47-1.22V15.25h13.47l2.3.92a1.2 1.2 0 01.76 1.12z" fill="#651e18"/><path d="M24.08 15.25h14.56v72.11H22.11V17.23a2 2 0 011.97-1.98z" fill="#ac4641"/><path class="cls-4" d="M36.86 15.25h1.19v72.11h-1.19z"/><path d="M57.86 25.84v61.51h-2.69l-11.82-1.07V24.05h11.82l2 .81a1.06 1.06 0 01.69.98z" fill="#51b7b7"/><path d="M42.64 24.05h12.53v63.31H40.66V26a2 2 0 011.98-1.95z" fill="#67d6df"/><path class="cls-4" d="M53.61 24.05h1.04v63.31h-1.04z"/><path class="cls-5" d="M40.66 26.51h14.51v1.7H40.66z"/><path class="cls-6" d="M57.86 27.59v1.7l-2.69-1.07v-1.71l2.69 1.08z"/><path class="cls-5" d="M40.66 30.08h14.51v1.7H40.66z"/><path class="cls-6" d="M57.86 31.15v1.7l-2.69-1.07v-1.71l2.69 1.08z"/><path d="M70.78 10.05l6.08 75.62-3.3.28-9.56-.19-6.2-76.51 9.49-1.14 2.57.79a1.34 1.34 0 01.92 1.15z" fill="#eabe1f"/><path d="M73.56 86l-12.8 1.41-6.1-75.87a2 2 0 011.81-2.13l10.82-1.3z" fill="#ffe12b"/><path class="cls-4" transform="rotate(-4.6 69.179 47.168)" d="M68.5 8.09h1.28v78.09H68.5z"/><path d="M88.36 19.54l5.32 66-2.89.25-12.13.21-5.38-66.85 12-1.31 2.24.69a1.14 1.14 0 01.84 1.01z" fill="#ca2b28"/><path d="M90.79 85.82l-14.93 1.54-5.33-66.25a1.73 1.73 0 011.58-1.86l13.21-1.41z" fill="#ff393a"/><path class="cls-4" transform="rotate(-4.6 86.94 51.996)" d="M86.38 17.82h1.12v68.19h-1.12z"/><path d="M114.24 8.5v78.85h-3.44L95.64 86V6.2h15.16l2.59 1a1.35 1.35 0 01.85 1.3z" fill="#cc6916"/><path d="M94.17 6.2h16.63v81.16H92.2V8.18a2 2 0 011.97-1.98z" fill="#fc891f"/><path style="mix-blend-mode:overlay" opacity=".2" fill="#fff" d="M108.8 6.2h1.33v81.16h-1.33z"/><path class="cls-5" d="M92.2 9.36h18.6v2.18H92.2z"/><path class="cls-6" d="M114.25 10.74v2.18l-3.45-1.38V9.36l3.45 1.38z"/><path class="cls-5" d="M92.2 13.93h18.6v2.18H92.2z"/><path class="cls-6" d="M114.25 15.3v2.18l-3.45-1.37v-2.19l3.45 1.38z"/></g></g></g></svg>

<svg xmlns="http://www.w3.org/2000/svg" viewBox="0 0 114.24 87.36"><defs><style>.cls-1{isolation:isolate;}.cls-2{fill:#0e62aa;}.cls-3{fill:#1a81e6;}.cls-17,.cls-4{fill:#fff;mix-blend-mode:overlay;}.cls-4{opacity:0.5;}.cls-5{fill:#fff1da;}.cls-6{fill:#e5d5bd;}.cls-7{fill:#651e18;}.cls-8{fill:#ac4641;}.cls-9{fill:#51b7b7;}.cls-10{fill:#67d6df;}.cls-11{fill:#eabe1f;}.cls-12{fill:#ffe12b;}.cls-13{fill:#ca2b28;}.cls-14{fill:#ff393a;}.cls-15{fill:#cc6916;}.cls-16{fill:#fc891f;}.cls-17{opacity:0.2;}</style></defs><title>books3</title><g class="cls-1"><g id="Слой_2" data-name="Слой 2"><g id="Objects"><path class="cls-2" d="M23.73,2.48V87.35H20L3.71,85.86V0H20l2.78,1.11A1.48,1.48,0,0,1,23.73,2.48Z"/><path class="cls-3" d="M2,0H20a0,0,0,0,1,0,0V87.36a0,0,0,0,1,0,0H0a0,0,0,0,1,0,0V2A2,2,0,0,1,2,0Z"/><rect class="cls-4" x="17.87" width="1.44" height="87.36"/><rect class="cls-5" y="3.4" width="20.03" height="2.35"/><polygon class="cls-6" points="23.73 4.88 23.73 7.23 20.02 5.75 20.02 3.4 23.73 4.88"/><rect class="cls-5" y="8.31" width="20.03" height="2.35"/><polygon class="cls-6" points="23.73 9.79 23.73 12.14 20.02 10.66 20.02 8.31 23.73 9.79"/><path class="cls-7" d="M41.7,17.29V87.35H38.64L25.17,86.13V15.25H38.64l2.3.92A1.2,1.2,0,0,1,41.7,17.29Z"/><path class="cls-8" d="M24.08,15.25H38.64a0,0,0,0,1,0,0V87.36a0,0,0,0,1,0,0H22.11a0,0,0,0,1,0,0V17.23A2,2,0,0,1,24.08,15.25Z"/><rect class="cls-4" x="36.86" y="15.25" width="1.19" height="72.11"/><path class="cls-9" d="M57.86,25.84V87.35H55.17L43.35,86.28V24.05H55.17l2,.81A1.06,1.06,0,0,1,57.86,25.84Z"/><path class="cls-10" d="M42.64,24.05H55.17a0,0,0,0,1,0,0V87.36a0,0,0,0,1,0,0H40.66a0,0,0,0,1,0,0V26A2,2,0,0,1,42.64,24.05Z"/><rect class="cls-4" x="53.61" y="24.05" width="1.04" height="63.31"/><rect class="cls-5" x="40.66" y="26.51" width="14.51" height="1.7"/><polygon class="cls-6" points="57.86 27.59 57.86 29.29 55.17 28.22 55.17 26.51 57.86 27.59"/><rect class="cls-5" x="40.66" y="30.08" width="14.51" height="1.7"/><polygon class="cls-6" points="57.86 31.15 57.86 32.85 55.17 31.78 55.17 30.07 57.86 31.15"/><path class="cls-11" d="M70.78,10.05l6.08,75.62-3.3.28L64,85.76,57.8,9.25l9.49-1.14,2.57.79A1.34,1.34,0,0,1,70.78,10.05Z"/><path class="cls-12" d="M73.56,86l-12.8,1.41-6.1-75.87a2,2,0,0,1,1.81-2.13L67.29,8.11Z"/><rect class="cls-4" x="68.5" y="8.09" width="1.28" height="78.09" transform="translate(-3.56 5.7) rotate(-4.6)"/><path class="cls-13" d="M88.36,19.54l5.32,66-2.89.25L78.66,86,73.28,19.15l12-1.31,2.24.69A1.14,1.14,0,0,1,88.36,19.54Z"/><path class="cls-14" d="M90.79,85.82,75.86,87.36,70.53,21.11a1.73,1.73,0,0,1,1.58-1.86l13.21-1.41Z"/><rect class="cls-4" x="86.38" y="17.82" width="1.12" height="68.19" transform="translate(-3.89 7.14) rotate(-4.6)"/><path class="cls-15" d="M114.24,8.5V87.35H110.8L95.64,86V6.2H110.8l2.59,1A1.35,1.35,0,0,1,114.24,8.5Z"/><path class="cls-16" d="M94.17,6.2H110.8a0,0,0,0,1,0,0V87.36a0,0,0,0,1,0,0H92.2a0,0,0,0,1,0,0V8.18A2,2,0,0,1,94.17,6.2Z"/><rect class="cls-17" x="108.8" y="6.2" width="1.33" height="81.16"/><rect class="cls-5" x="92.2" y="9.36" width="18.6" height="2.18"/><polygon class="cls-6" points="114.25 10.74 114.25 12.92 110.8 11.54 110.8 9.36 114.25 10.74"/><rect class="cls-5" x="92.2" y="13.93" width="18.6" height="2.18"/><polygon class="cls-6" points="114.25 15.3 114.25 17.48 110.8 16.11 110.8 13.92 114.25 15.3"/></g></g></g></svg>
